X:19
T:Lord Cathcart's Favorite. G&D_1811.19
M:6/8
L:1/8
Q:3/8=120
C:"Haydn"
B:Goulding, D’Almaine & Potter 24 CDs, 1811
O:England
A:London
Z:Village Music Project, 1999, Chris Partington
W:1st Lady & 2nd Gent change places the 2nd ldy & 1st Gent do the same.
W:down the middle and  La Poussette.
K:Bb
F|FBcf2f|fedc2e|dBf ecg|(B3A2)F|
FBdf2f|fedc2d|edB dcA|(c3B2):|
e|fgab2b|bagf2^f|ged ceg|(B3A2)B|
cd=e fga|d3b2a|agf =efg|fg=e fga|
bfd Bdf|fedc2e|(dB).f (ec).g|(B3A2)F|
Bdff2f|fed{d}c2e|edB dcA|(c3B2)|]

